X:1
T:String Quartet No. 1 Op. 4
T:I
T:Alexander Zemlinsky
%%score 1 2 ( 3 4 ) 5
L:1/8
M:6/8
K:A
V:1 treble nm="Violin"
V:2 treble nm="Violin"
V:3 alto nm="Viola"
V:4 alto 
V:5 bass nm="Cello"
V:1
!f! (a/e/c/ |: !>!B>)cc- c/(e/dc) | B>cc- c/(A/e/(d/)d/c/) | (B/c/d-)!<(! d/(e/=f-) (f/!<)!=g/a) | %4
 ([Aa]2 g2 aA) |!p! (f>e^d-) d/(f/f/e/)(e/d/) | f-(f/e/e/A/!<(! c-)(c/B/B/B,/)!<)! | z6 | %8
 z2 z (F!<(!GA)!<)! |!f! f!>!g!>!a !>!c'2 b- | b !>!a=f (dB)a ||[M:9/8] e'2 d'-d' b!>!a (=fd)a || %12
[M:6/8]!ff! !>![Aa] z [Ae] z e z | !>!E z !>!E z z !fermata!z |!pp! .A/.G/ A2 .A/.G/ A>B | %15
 .=c.BA- A/B/ .c.B | A/B/ =c/B/c c/B/ c>d | ed=c- c/d/ .e.d | .=c/.d/.e/.^d/ .e .=d/.e/.=f/.e/ .f | %19
!pp! .=c/.d/.e/.^d/ e .=d/.e/.=f/.e/ .f | z/ (a/e/=c/ A/) (a/e/^c/ A/)!<(! !>!a'/=f'/d'/!<)! | %21
!f! b>(c'c' c'/(e'/)d'c') | b>c'c'- c'/a/(e'/d'/)d'/c'/ | %23
!<(! (b/c'/d'-) d'/(e'/f'-) (f'/(g'/)!<)!a') | (_b'2 a'2 b'_b) | (f'2 ^e'2 f'f) | (d'2 c'2 d'd) | %27
 (=gfg=G (d)c | dD (=G)FG=G,) | z2 z (=G2 _e) | (A3 _B3) | z2 z (E2 =c | =c2 A =F3) | %33
 z2 z (=C2 A) | (^E3 F3-) | F2 z (A,2 F || ^^C2 ^D) z (A,F | ^^C2 ^D) z (Af) | z F^d!f! (B2 g | %39
 (^d6) | e3) (B2 G | =c6 | B3) (B,2 G) | (^D2!<(! E B2 G)!<)! | (^D2 E cBG) |!p! (^DEc e2 c) | %46
 (e2 B) (e2 ^A) | (GAf a2 f) |!<(! (ae)(a^d!<)!!f! a>)g | (^^f3- f2 (g) | (d3-) d2 (e) | %51
 ^B3-) B2 (c | G3-) G2 A |!<(! (c2 A- A2 G)!<)! | (c2 F-) ((F^A)c | f2 ^d- d2 c) | (f2 B-) (B^df | %57
!pp! g3-) g b2 | g3- g !>!b2 | g3- g2 (a | f3-) f2 =g | ^d3- d (e2 | ^d3-) d !>!e2 | B3- B2 (=c | %64
 ^A3-) A2 B | z6 | z6 | z6 | z2 z z2 (B | g3 f3 | ^d3) (e2 b) | (b3 a2 g) | (g3 f2) (c' | %73
!f! (^b6) | c'2) z (e2 c' | (^a6) | b3) (B2 g | (^d6) | e2) z (E2 c | (^A6) | B3) z2 z | (^A,6 | %82
 B,2) z z z/!pp! (e/B/G/ | F>)GG- G/B/(.A.G) | F>GG- G/E/(B/A/)(A/G/) | %85
 (F/(G/A A/)B/!p!c- c/d/e/f/) | g3- g z/ :|!pp! .a/.e/.=c/ | !tenuto!B>=cc z/ (e/ d).c | %89
 B>=cc z/ (e/ d)c | B>cc- (c/(e/).d).c | B>cc- (c/(e/).d).c | B>cc- c/d/ d>e | e>=ff- f/g/ g>!f!a | %94
 [A-a]>[Aa][Aa]- [Aa]>[Aa][Aa-] | a>dd- d/A/ A>A | f/!>!^e/ !>!f2 !>!f/!>!e/ !>!f2 | %97
 f/!>!^e/ f>g !>!a!>!gf | a/g/ a>b c'ba | a/g/ a>b =c'ba | e'd'=c' =g'=f'e' |!mp! (=g/f/ g2) z2 z | %102
!p! (=G/F/ G2) z2 z |!pp! (=g/f/ g2) z2 z | (=G/F/ G2) z2 z | z z/!p! (_a/_e/=c/ _A>)_BB | %106
 _B>=cc!<(! c/(.c/c/(_d/d/)_e/)!<)! | (_f/_e/f) z z2 z | .^d.c.B z2 z | z z/ (e'/b/=g/ e>)ff | %110
 f>(gg g/)(.g/g/(a/a/)b/) | (=c'/b/c') z (d'/^c'/d') z | (e'/d'/!<(!e') z (=f'/!<)!e'/f') z | %113
 (f'/^e'/f') (f'/e'/f') (f'/e'/f') | (=g'/f'/g') (g'/f'/g'/f'/) .g'/ _a'/!>!_e'/!>!=c'/ | %115
 _b>=c'c'- (c'/_e'/_d')c' | _b>=c'c'- c'/_a/(_e'/_d'/)(d'/c'/ | %117
 (_b/)=c'/)_d'-!<(! (d'/_e'/)_f'- f'/(_g'/=g'/_a'/)!<)! | !tenuto!_a'2 !tenuto!_e'2 !tenuto!_a2 | %119
 (_b/=c'/)_d'- d'/_e'/_f'-!<(! f'/_g'/=g'/^g'/!<)! | !tenuto!a'2 !tenuto!e'2 !tenuto!a2 | %121
 e2 z z2 z |!f! (_B2 A2 B_B,) | z6 | (_b'2 a'2 b'_b) | (f'2 ^e'2 f'f) | (A3 D3) | (_c2 _B2 c_C) | %128
 z6 | z6 | (=g2 f2 g=G |!mp! (f2) ^e2 fF) |!>(! e6- | e!>)! z z z2 z | (=g2 f2 g=G) | %135
 (g2 ^^f2 gG) |!<(! (a6 | ^a3-)!<)! a (e2 |!f! (b2) ^a2 bB | (a2) g2 (aA)) |!p! (g2 ^^f2 gG) | %141
 (f2 ^e2 fc) | (e2 ^d2 eE) | (^d2 ^^c2 d^D | c3) z z/ F/A/c/ | (f2 ^e2 fF) | e3 z z/ (A/c/e/) | %147
 (a2 g2 aA) | (^a2 ^^g2 a^A) |!f! !>!_b/a/ !>!b2 !>!b/a/ !>!b2 | _b/a/ b>=c' _d'c' b/c'/ | %151
 _d'/=c'/ d'2 d'/c'/ d'2 | c'/^b/c' d'/c'/d' ^d'/^^c'/d' | e'/^d'/e' f'/e'/f' ^^f'/^f'/^^f' | %154
!ff! g'/f'/ g'2 g/f/ g2 | g/f/ g2 G/F/ G2 | a2 g2 (aA) | G/F/ G2 g/f/ g2 |!f! A2 G2 (AA,) | =F6 | %160
 (!>!dcdD) (!>!=fe | =f=F) (!>!gG) z !fermata!z | z2 z2 z/!f! a/e/c/ | B>cc- c/(e/dc) | %164
 B>cc- (c/A/e/d/(d/)c/) | (B/!<(!c/)d- d/e/=f- f/!<)!(=g/a) | ([Aa]2 g2 aA) | %167
!p! (f>e^d d/f/)(f/e/(e/)d/) | f-(f/e/e/A/ c-)(c/B/B/B,/) | z6 | z2 z!<(! (FGA)!<)! | %171
!f! !>!f!>!g!>!a !>!c'2 b- | b !>!a!>!=f (dB)a ||[M:9/8] e'2 d'2 ba (=fd)a | %174
[M:6/8]!f! [Aa] z [Ae] z [Ae] z | E z E z !fermata!z2 |!pp! .A/.G/ A2 .A/.G/ A>B | %177
 .=c.BA- A/.B/ .c.B | .A/.B/=c/.B/ c .c/.B/ c>d | .e.d=c- .c/.d/ .e.d | %180
!p! .=c/.d/.e/.^d/ e .=d/.e/.=f/.e/ f |!pp! .=c/.d/.e/.^d/ .e .=d/.e/.=f/.e/ .f | %182
 z/ (a/e/=c/ A/) (a/e/^c/ A/)!f! !>!a'/=f'/d'/ | b>c'c'- c'/(e'/d'c') | %184
 b>c'c'- (c'/a/e'/d'/(d'/)c'/) |!<(! (b/(c'/)d' d'/e'/)f'- f'/(g'/a')!<)! | (_b'2 a'2 b'_b) | %187
 (f'2 ^e'2 f'f | (d'2) c'2 d'd | (=g)fg=G (d)c | dD) (=GFG=G,) | z2 z!p! (=G2 _e | A3 _B3) | %193
 z2 z (E2 =c | =c2 A =F3) | z2 z (=F2 d | ^A3 B3-) | B2 z (D2 B |!p! ^^F2 G) z (DB | %199
 ^^F2 G) z (db) | z (Bg)!f! (e2 c' | (g6) | a3) (e2 c | =f6 | e3) (E2 c) | (G2 A e2 c) | %206
 (G2 A fec) |!p! (G!<(!Af a2 f)!<)! | (a2 e) (a2 ^d) | (cdb) (d'2 b) | (d'a)(d'g!f! (d'>)c') | %211
 ^b3- b2 (c' | g3-) g2 (a | ^e3-) e2 (f | c3-)!>(! c2 d!>)! |!p! (f2 d- d2 c) | (f2 B- B^df) | %217
 (b2 g- g2 f) | (b2 e- egb) |!pp! c'3- c' !>!e'2 | (c'3 c' !>!e'2) | c'3- c'2 (d' | b3-) b2 =c' | %223
 g3- g !>!a2 | (g3 g !>!a2) | e3- e2 (=f | d3-) d2 e | z6 | z6 | z6 | z2 z z2 (e | c'3 b3 | %232
 g3!<(! a2) (e'!<)! | e'3 d'2 c' | c'3!<(! b2) (f'!<)! |!f! (^e'6) | f'2) z (a2 f' | (^d'6) | %238
 e'3) (e2 c' | (g6) | a2) z (A2 f | (^d6) | e3) z2 z | z2 z z3/2!p! (A/E/C/ | %244
 (.B,2) .=C2{/E} .D.C) | (.B,2 .=C2{/E} .D.C) | B,/=C/D- D/E/ =F- F/=G/_A- | %247
 A/_B/!<(!=c- c/d/ e- e/f/!<)!g |!f! (a2 g2 (a)(A) | (b3) ^b3) |!<(! (c'2 d'2!<)! ^d'2) | %251
!f! e' z z!sfz! [Af] z z | [Ae] z z!sfz! E z z | !fermata!z6 |!pp! e3- e/e/ e2 | e3- e/e/ e2 | %256
 E3- E/E/ E2 | E3- E/E/ E2 | E6 | =F6 |!<(! (E6 |!f! (a2)!<)! g2 aA) | e2 z!pp! C2 z | %263
 !fermata!C6 |] %264
V:2
 z3/2 |:!f! A2 A2 A2 | A2 A2 A2 | A=F/=G/!<(! AA/(c/ d)!<)!(e/=f/) | e3 A,2 z | z6 | z6 | %7
!p! (^def a>gf) | (eae) (f!<(!ga)!<)! |!f! F!>!G!>!A !>!c2 !>!B- | B !>!A!>!A A2 B || %11
[M:9/8] !>!e2 d-d B!>!B B2 B ||[M:6/8]!ff! !>!e z =c z !>!F z | A, z G, z z !fermata!z | %14
!pp! .E/.E/ E2 .E/.E/ E>G | .=G.^GE- E/G/ .=G.^G | E/=G/ G/G/G !>!G/G/ G>F | =GGG- G/F/ GG | %18
!p! .=G/.B/.=c/.B/ .c .B/.c/.d/.c/ .d | z z/!<(! (a/e/!<)!=c/) A>G G/B/ | %20
 B/=c/!>!c- c/!<(!^c/ !>!c- c/!<)!d/!>!d |!f! (A/a/)a/(A/ A/a/)a/A/ A/a/a/A/ | %22
 (A/a/)a/A/ (A/a/)(a/A/ A/a/)a/A/ |!<(! (B/c/d-) d/(e/f-) f/(g/!<)!a) |!ff! (_b2 a2 b_B) | %25
 (f2 ^e2 fF) | (d2 c2 dD | (=G)FG=G,) (DC | D2) z z2 z | z6 | z2 z (_B,2 =G) | (=G3 _B,3) | %32
 z2 z (A,2 A | A2 =F =C3) | z2 z (A2 f) | (^^c2 ^d) z2 z || z (Af) (^^c2 ^d) | z (Af) ^^c2 ^d | %38
 z (Af)!f! (G2 e | (=c6) | B3) (G2 E | F6 | G3) (G,2 E) | (^DC!<(!=C B,ED)!<)! | (C2 =C B,2 E) | %45
 z2 z (^B,CA) | (cBE) (B^AC) | z2 z (^EFd) |!<(! (feA)!<)! =c(B^D) | (^A3- A2 (B) | F3-) F2 (G | %51
 ^D3-) D2 (E | (B,)CD CFE) |!p! (^DEF!<(! CFE)!<)! | (^DEF CFE) | (^DEF EBA) | (FGA FBA) | %57
 z!pp! (Be c f2) | z (Be c f2) | z (Be A e2) | z (A_e _B e2) | z (F=c) (=G !>!c2) | %62
 z (F=c =G !>!c2) | z (D_A E =G2) | z (CF) (B, F2) | (B,3 A,3 | ^^F,3 G,3) | (D3 C2 B,) | %68
!>(! B,3- B,2!>)! B | (B3 A3 | ^^F3 G2 d) | (d3 c2 B) | (B3 A3) |!f! (!>!^d6 | e2) z (ABc | %75
 e^dc f2 e) | B3 z2 z | (F6 | A2) z z2 z | E6- | E3 z2 z |!pp! G,6- | G,2 z z2 z | %83
!pp! E2 E2 (.E.E) | E2 E2 (.E.E) | E2!p! A2 A2 | G3- G z/ :| z/ z |!pp! (.A .A2 .A .A2) | %89
 (.A .A2 .A .A2) | =F>EE- E/(=C/.D).E | =F>EE- E/(C/.D)E | =F>EE- E/F/ F>=G | =G>AA- A/B/ B>c | %94
!f! d/!>!c/ d2 !>!d/!>!c/ !>!d2 | d/c/ d>e !>!f!>!ed | A/!>!G/ !>!A2 A/G/ !>!A2 | %97
 !>!A/!>!G/ !>!A>B !>!c!>!B!>!A | c/B/ c>d edc | =c/B/ c>d edc | =g=fe ed=c |!mp! (e/^d/ e2) z2 z | %102
!p! (E/^D/ E2) z2 z |!pp! (_e/d/ e2) z2 z | (_E/D/ E2) z2 z | z2 z!pp! (_F/_E/F) z | z6 | %107
 (_d/=c/d) z (_F/_E/F) z | .F.E.^D .F.E.D | z2 z!pp! (=c/B/c) z | z6 | z z/!mp! a/e/=c/ A>AA | %112
 z z/!<(! a/e/c/ A>!<)!BB | z z/ a/f/^d/ A>BB | z/ _b/=g/_e/ z/ b/g/e/ z/!f! !>!_a/e/!>!=c/ | %115
 _A2 A2 A!>!A | !>!_A2 !>!A2 !>!A!>!A | !>!_a2 !>!_f2 !>!_B2 | _e2 z z2 z | _a2 _f2 _B2 | %120
 (A/B/)=c- c/(d/e-) e/!<(!f/g/a/!<)! | (a2!pp! g2) (aA) | z6 |!f! (a2 g2 aA) | (_b2 a2 b_B) | %125
 (f2 ^e2 fF) | (d2 c2 dD) | (_G3 _C3) | z G2 F2 G | z =G2 F2 G | z (D2 D2 D) | z (D2 D2 D) | %132
 z (=C2 C2 C) | z (C2 C2 C) | z (D2 D2 D) | z (D2 D2 D) | z!<(! E2 E2 E!<)! | z =G2 G2 G | %138
 z (d=g c d2) | (=c2 B2 c2) | z!p! (Be ^A B2) | (A2 G2 F2) | z (G,B, =G, ^A,2) | (A,3 F3) | %144
 (A2 G2 AA,) | C3 z z/ (C/F/A/) | (c2 ^B2 cC) | E z/ (C/E/A/ c) z/ (C/E/A/ | %148
 c) z/ (C/F/^A/ c) z/ F/A/c/ |!f! _d/!>!=c/ !>!d2 !>!d/!>!c/ d2 | _d/=c/ d>c _B_e d/e/ | %151
 =f/e/ f2 f/e/ f2 | ^e/=e/^e =f/=e/f ^f/^e/f | =g/f/g a/^g/a (.^a/^^g/) a/b/ | %154
!ff! e'/^d'/ e'2 e/^d/ e2 | B/^A/ B2 B,/^A,/ B,2 | A2 G2 (AA,) | E/^D/ E2 e/^d/ e2 |!f! B6 | %159
 B2 ^A2 (BB,) | (A3 B3 | d2) =f2 z !fermata!z |!f! a2 g2 (aA) | (.A2 .A2 .A2) | (.A2 .A2 .A2) | %165
 (A=F/)=G/ A-A/c/ (de/=f/) | (a2 g2 aA) | z6 | z6 | (^def a>gf) | (eae)!<(! (fga)!<)! | %171
!f! !>!F!>!GA !>!c2 !>!B- | B AA A2 B ||[M:9/8] e2 d2 BB B2 A |[M:6/8]!ff! e z =c z F z | %175
 A, z G, z !fermata!z2 |!pp! .E/.E/ E2 .E/.E/ E>G | .=G.^GE- E/.G/ .=G.^G | %178
 .E/.=G/.G/.G/ G .G/.G/ G>F | .=G.GG- G/.F/ .G.G | .=G/.B/.=c/.B/ c .B/.c/.d/.c/ d | %181
 z z/!p! (a/e/=c/ A>)(G G/B/-) | B/=c/c- c/^c/ c- c/d/d | %183
!f! (A/a/)(a/A/ (A/)a/)(a/A/ (A/)a/)(a/A/) | (A/a/)(a/A/ (A/)a/)(a/A/ (A/)a/)(a/A/) | %185
 (B/(c/d) (d/e/)f-) f/(g/a) |!ff! (_b2 a2 b_B) | (f2 ^e2 fF | (d2) c2 d(D) | =GFG!tenuto!=G,) (DC | %190
 D2) z z2 z | z6 | z2 z!p! (_B,2 =G | =G3 _B,3) | z2 z (A,2 A | A2 =F D3) | z2 z (d2 b) | %197
 (^^f2 g) z2 z | z!pp! db (^^f2 g) | z (db ^^f2 g) | z (db)!f! (c2 a | =f6 | e3) (c2 A | B6 | %204
 c3) (C2 A) | (GF=F EAG) | (F2 =F E2 A) | z2 z!p! (^EFd) | (feA) (e^dF) | z2 z (^AB=g | %210
 bad)!f! (=feG) | ^d3- d2 (e | B3-) B2 (c | G3-) G2 (A | (E)F=G FBA) |!p! (GAB) (FBA) | %216
 (GAB) (FBA) | (GAB Aed) | (Bcd Bed) | z!pp! (ea f b2) | z (ea f b2) | z (ea d a2) | %222
 z (d_a _e a2) | z (B=f =c f2) | z (B=f =c f2) | z (=G_d A =c2) | z (FB E B2) | (E3 D3 | ^B,3 C3) | %229
 (G3 F2 E) | E3- E2 (e | e3 d3 | ^B3!<(! c2) (g!<)! | g3 f2 e | e3!<(! d3) |!f! (g6!<)! | %236
 a2) z (def | agf b2) a | e3 z2 z | (B6 | d2) z z2 z | A6- | A3 z2 z | z6 | (.A,2 .A,2 .A,.A,) | %245
 (.A,2 .A,2 .A,.A,) | A,/(A,/A, A,/)=C/ C- C/_E/E- | E/=G/!<(!G- G/B/ B- B/d/!<)!e |!f! (e3 ^e3) | %249
 (a2 g2 aA) |!<(! (a2 g2!<)! aA) |!f! [Ae] z z!sfz! =c z z |!sfz! B z z!sfz! B, z z | !fermata!z6 | %254
!pp! c3- c/c/ c2 | B3- B/B/ B2 | C3- C/C/ C2 | B,3- B,/B,/ B,2 | C6 | =C6 |!<(! (A2 G2 A2)!<)! | %261
!f! (d6 | c2) z!pp! A,2 z | !fermata!A,6 |] %264
V:3
 z3/2 |:!f! F2 E2 (DE | F2) E2 (DE) | (=FE!<(!D) (FE!<)!D) | (A,3 E2) z |!p! (^DEF A>GF) | %6
 (EAE)!<(! (FGA)!<)! |!p! (B,3 ^B,3 | C3!<(! ^D3)!<)! |!f! !>!^D!>!D!>!D !>![=DA]2 [=FA]- | %10
 [FA] !>!D!>!D (D=F)F ||[M:9/8] !>![A,A]2 !>![=FA]2 FF D2 D ||[M:6/8]!ff! !>!C z !>!F z !>!=C z | %13
 !>!B, z !>!B, z z !fermata!z |!pp! .=C/.B,/ C2 .C/.B,/ C>E | .E.D=C- C/E/ .E.D | %16
 =C/D/ (E/D/)E !>!E/D/ E>C | =C=FE- E/C/ CF |!p! E z/ (A/E/=C/)!>(! A,>G,G,!>)! | %19
!pp! .A,/.B,/.=C/.B,/ .C .B,/.C/.D/.C/ D | E,/.G,/.A,/.G,/ A, .C/.E/ .=F/.E/F |!f! =F2 E2 (DE | %22
 F2) E2 (.DE | A>)!<(!BB- B/A/!<)![K:treble](f/(e/)e/d/) |!ff! (=f2 f2 _b_B) | (A2 A2 fF) | %26
[K:alto] =G3 G z z | z6 | z6 |[K:D]!pp! (GFGG, (G)F | GG, (G)FGG,) | (E^DEG, (E)D | %32
 EA,) (=FEF=F,) | (=FEF=F,) (FE) |!pp! (^D(^^C)D^D,) (=CB,) | (A,G,A,(F,) A,G, || %36
[K:A] A,F,) (A,G,A,F,) | (A,G,A,G,) (AG | AB,) z (E2 B |!p! F6 | G3) (E2 B, | ^D6 | E3) (E,2 B,) | %43
 (^A,3!<(! B,3) | (E,!<)!F,^^F, G,A,B,) |!p! (E,2 A,) (A,2 C) | (E,2 B,) (B,2 E) | %47
 (D,2 A,) (A,2 F) |!<(! (A,2 F2!<)!!f! ^D2) | z2 z (E2 ^D | ^B,3) (C2 =B, | G,3) (A,2 G, | %52
 (^E,3) F,3) |!p! (A,3!<(! G,3) | (F,3!<)! C3) | (^D3 C3 | (B,3) F3) | z z!pp! G- G2 A | %58
 z z G- G2 A | z z E- E2 E | z z _E- E2 E | z z =C- C2 C | z z =C- C2 C | z z _A,- A,2 =G, | %64
 z z F,- F,2 F, |!mf! (G3 F3 | ^D3 (E2) B) | (B3 A2 G) | (G3 F3) | z (B,E B, ^D2) | %70
 z ((A,C) (G, C2)) | z (CD) z (E^E) | z (B,C ^DEF) |!f! (FE^D G2 F | E2) z (C2 E | ^^F6) | %76
 (GFE AGE) | (^B,6 | C)(B,A, ^D2 C) | G,6- | G,3 z2 z |!p!!pp! G,6- | G,2 z z2 z | %83
!pp! C2 C2 (.C.C) | =C2 C2 (.C.C) | (C^B,C!p! E2 ^D) | E3- E z/ :| z/ z | %88
 z z/!pp! .A/.E/.=C/ B,>CC | z/ (E/ .D).=C B,>CC | A,>A,A,- A,/A,/A,A, | A,>A,A,- A,/A,/A,A, | %92
 A,>A,A,- A,/A,/ A,>=C | =C>CC- C/E/ E->E |!f! F/!>!E/ !>!F2 !>!F/!>!E/ !>!F2 | F/E/ F>G A!>!=GF | %96
 [C,C]>[C,C][C,C]- [C,C]>[C,C][C,C] | D>F,F,- F,/C,/ C,>C | F>A,A,- A,/E/ E>A | E>EE- E/E/ E>E | %100
 [=G,=G]>[G,G][G,G]- [G,G]/[G,G]/ G>G | z2 z!mp! (.=G.=F.E) | z2 z!p! (.E.D.=C) | %103
 z2 z!pp! (._E.D.=C) | z2 z (.=G,.=F,._E,) |!pp! (_A,/=G,/A,) z (_D/=C/D) z | %106
 ._E,._D,.=C, ._E._D.=C | z2 z (_D/=C/D) z | z2 z .^D.C.B, | (=G,/F,/G,) z (A/G/A) z | %110
 .B,.A,.G, .G.F.E | E z z z z/!p! A/=F/D/ | A,>!<(!A,A, z z/ A/!<)!=F/D/ | A>BB z z/ A/F/^D/ | %114
 z z/ _B/=G/_E/ z/ B/!>!G/!>!E/E/!>!E/ |!f! !>!_F2 !>!_E2 _D!>!E | _F2 _E2 _D!>!E | %117
 !>!_F2 !>!_A2 F2 | (_A,/(_B,/)=C C/)_D/_E-!<(! E/(F/=G/A/)!<)! | z2 _A2 _F2 | %120
 (A,/B,/)=C- C/(D/E-) E/!<(!F/G/A/!<)! |!f!!mp! (A2 G2 A2) | =F3- F D2 | (A2 G2 A2) | %124
 =F2 !tenuto!F2 !tenuto!F2 | !tenuto!A2 !tenuto!A2 !tenuto!A2 | FF, z z2 z | _E_E, z z2 z | %128
 z!p! (D2 D2 D) | z (D2 D2 D) | z (B,2 B,2 B,) | z (_B,2 B,2 B,) | z (F,2 F,2 F,) | %133
 z (=G,2 G,2 G,) | z (=G,2 B,2 B,) | z (B,2 B,2 B,) | z!<(! A,2 A,2 A,!<)! | z E2 E2 E | %138
 z!f! (.[DG]2 .[DG]2 .[DG]) | z (D^E D F2) | z!p! (E2 E2 E) | z (A,C B, A,2) | z (E,G, E, =G,2) | %143
 z (F,A, F, A,2) | z (A,C ^E, F,2) | z (A,C G, A,2) | z (EA ^D E2) | z (CE) z (CE) | %148
 z (CF) z (F^A) |!f! !>!=F/!>!F/ F2 !>!F/.F/ !>!_F2 | E/E/ E>E =FFF |[K:treble] _d/=c/ d2 d/c/ d2 | %152
 c[K:alto] z/ G/=F/B,/ z/ A/^F/B,/ z/ B/ | =G/B,/ z/ B/F/B,/ z/ B/^^F/B,/ z/ B/ | %154
[K:treble]!ff! e2 ^d2 (eE) |[K:alto] E2 ^D2 (EE,) | =F,/E,/ F,2 =F/E/ F2 | E2 ^D2 (EE,) | %158
!f! =F, z/ F,/B,/D/ =F z/ F/D/B,/ | G, z/ B,/D/=F/ G z/ G/F/D/ | B, z/ A/=F/D/ B, z/ A/F/D/ | %161
 B,/ B/A/=F/ D/B/F/D/ z !fermata!z |!f! A2 G2 (AA,) | (F2 E2 DE) | (F2 E2 DE) | %165
 (=F!<(!ED (F)E!<)!D) | E3- [A,E]2 z |!p! (^DEF A>GF) | (EAE F>GA) | (B,3 ^B,3 | C3!<(! ^D3)!<)! | %171
!f! !>!^D!>!D!>!D !>![=DA]2 !>![=FA]- | [FA] !>!D!>!D (D=F)F ||[M:9/8] [A,A]2 [=FA]2 FF D2 D | %174
[M:6/8]!ff! C z F z =C z | B,2 B, z !fermata!z2 |!pp! .=C/.B,/ C2 .C/.B,/ C>D | %177
 .E.D=C- C/.E/ .E.D | .=C/.D/.E/.D/ E .E/.D/ E>C | .=C.=FE- E/.C/ .C.F | E z/ (A/E/=C/) A,>G,G, | %181
!pp! A,/B,/=C/B,/ C B,/C/D/C/ D | E,/G,/A,/G,/ A, C/E/=F/E/ F |!f! =F2 E2 (DE | F2) E2 (DE) | %185
!<(! A>(BB (B/)!<)!A/[K:treble](f/)e/(e/)d/) |!ff! (=f2 f2 _b_B) | (g2 (g2 ^e'e) | =f3) f z z | %189
 z6 | z6 |[K:alto]!pp! (=GFG=G, (G)F | =G=G, (G)FGG, | (E)^DE(=G,) ED | E=G,) (=FEF=F,) | %195
 (DCDA,) ((_BA)) | (G^^FG(G, (=F)E)) | (DCDB,) (DC |!pp! DB,) (DCDB,) | (DCDB, (D)C | %200
 DE,) z[K:treble]!f! (A2 e | (B6) | c3) (A2 E | G6 |[K:alto] A3) (A,2 E) | (^D3 E3) | %206
 (A,B,^B, CDE) |!p! (A,2 D) (D2 F) | (A,2 E (E2) A) | (=G,2 D) (D2 B) | D2 B2!f! G2 | z2 z (A2 G | %212
 ^E3) (F2 E | C3) (D2 C | ^A,3) B,3 |!p! (D3 C3 | B,3 F3) | (G3 F3 | E3 B3) | z z!pp! c- c2 d | %220
 z z c- c2 d | z z A- A2 A | z z _A- A2 A | z z =F- F2 F | z z =F- F2 F | z z _D- D2 =C | %226
 z z B, B,2 B, | (c3 B3 | G3 (A2) e) |[K:treble] (e3 d2 c) | (c3 B3) |[K:alto] z (EA E G2) | %232
 z (DF C F2) | z (FG) z (A^A) | z (EF!<(! GAB)!<)! |!f! (BAG c2 B) | A2 z (F2 A | (^B6) | %238
 (c)BA dcA) | (^E6 | (F)ED G2 F | C6-) | C3 z2 z | z6 |!p!!p! (.=F,2 .E,2 .D,.E,) | %245
 (.=F,2 .E,2 .D,.E,) | =F,/(E,/F, F,/)=G,/ A,- A,/_B,/=C- | C/_E/!<(!=E- E/=G/ ^G- G/B/!<)!B | %248
!f! (E3 ^E3) | F6 |!<(! (A2 G2!<)! AA,) |!f! C z z!sfz! ^D z z |!sfz! D z z!sfz! G, z z | %253
 !fermata!z6 |!pp! (A2 G2 AA,) | A3- A/A/ G2 | (A,2 G,2 A,2) | A,3- A,/A,/ G,2 | A,6 | %259
 (A,2 G,2 A,2) |!<(! A,6!<)! |!f! (F3 =F3) | [A,E]2 z!pp! E,2 z | !fermata!E,6 |] %264
V:4
 x3/2 |: x6 | x6 | x6 | x6 | x6 | x6 | x6 | x6 | x6 | x6 ||[M:9/8] x9 ||[M:6/8] x6 | x6 | x6 | x6 | %16
 x6 | x6 | x6 | x6 | x6 | x6 | x6 | x4[K:treble] x2 | x6 | x6 |[K:alto] x6 | x6 | x6 |[K:D] x6 | %30
 x6 | x6 | x6 | x6 | x6 | x6 ||[K:A] x6 | x6 | x6 | x6 | x6 | x6 | x6 | x6 | x6 | x6 | x6 | x6 | %48
 x6 | x6 | x6 | x6 | x6 | x6 | x6 | x6 | x6 | x6 | x6 | x6 | x6 | x6 | x6 | x6 | x6 | x6 | x6 | %67
 x6 | x6 | x6 | x6 | x6 | x6 | x6 | x6 | x6 | x6 | x6 | x6 | x6 | x6 | x6 | x6 | x6 | x6 | x6 | %86
 x9/2 :| x3/2 | x6 | x6 | x6 | x6 | x6 | x6 | x6 | x6 | x6 | x6 | x6 | x6 | x6 | x6 | x6 | x6 | %104
 x6 | x6 | x6 | x6 | x6 | x6 | x6 | x6 | x6 | x6 | x6 | x6 | x6 | x6 | x6 | x6 | x6 | x6 | x6 | %123
 x6 | x6 | x6 | x6 | x6 | x6 | x6 | x6 | x6 | x6 | x6 | x6 | x6 | x6 | x6 | x6 | x6 | x6 | x6 | %142
 x6 | x6 | x6 | x6 | x6 | x6 | x6 | x6 | x6 |[K:treble] x6 | x[K:alto] x5 | x6 |[K:treble] x6 | %155
[K:alto] x6 | x6 | x6 | x6 | x6 | x6 | x6 | x6 | x6 | x6 | x6 | x6 | x6 | x6 | x6 | x6 | x6 | x6 || %173
[M:9/8] x9 |[M:6/8] x6 | x6 | x6 | x6 | x6 | x6 | x6 | x6 | x6 | x6 | x6 | x4[K:treble] x2 | x6 | %187
 x6 | x6 | x6 | x6 |[K:alto] x6 | x6 | x6 | x6 | x6 | x6 | x6 | x6 | x6 | x3[K:treble] x3 | x6 | %202
 x6 | x6 |[K:alto] x6 | x6 | x6 | x6 | x6 | x6 | x6 | x6 | x6 | x6 | x6 | x6 | x6 | x6 | x6 | x6 | %220
 x6 | x6 | x6 | x6 | x6 | x6 | x6 | x6 | x6 |[K:treble] x6 | x6 |[K:alto] x6 | x6 | x6 | x6 | x6 | %236
 x6 | x6 | x6 | x6 | x6 | x6 | x6 | x6 | x6 | x6 | x6 | x6 | x6 | x6 | x6 | x6 | x6 | x6 | x6 | %255
 x6 | x6 | x6 | x6 | x6 | x6 | A,6 | x6 | x6 |] %264
V:5
 z3/2 |:!f! D2 A,2 (F,A, | D2) A,2 (F,A,) | (DA,!<(!=F,) (D,A,,!<)!=F,,/D,,/) | (C,,3 C,2) z | %5
!p! (B,3 ^B,3) |!<(! (C3!<)! ^D3) |[K:tenor]!p! (F>E(^D) D/F/)(F/E/(E/)D/) | %8
 F-(F/E/E/A,/)[K:bass]!<(! C-C/(B,/B,/B,,/)!<)! |!f! !>!A,,!>!G,,!>!F,, !>!=F,,2 D,,- | %10
 D,, !>!=F,,!>!A,, (B,,D,)D,, ||[M:9/8] !>!=F,,2 !>!A,,-A,, D,!>!=F, (A,F,)D, || %12
[M:6/8]!ff! E, z E z !>!E, z | !>!E, z !>!E,, z z !fermata!z | %14
!pp! .A,,/.E,/ A,,2 .A,,/.E,/ A,,>E,, | .=C,,.E,,A,,- A,,/E,,/ .C,,.E,, | %16
 A,,/=G,,/ =C,/=G,/C, !>!C,/G,/ C,>A,, | =G,,B,,=C,- C,/A,,/ .G,,.B,, | %18
!p! =C, z .A,,/.A,,/ D, z .D,,/.D,,/ | A,, z A,, D, z D,, | %20
 A,, z A,,/!<(!A,,/ =G,,/G,,/ =F,,/F,,/ D,,/!<)!D,,/ |!f! D,2 A,,2 (=F,,A,, | D,2) A,,2 (F,,A,, | %23
!<(! D,F,A,) (DEF)!<)! |!ff! DD, (D,D,,) z z | CC, (C,C,,) z z | (_B,_B,,) z B, z z | z6 | z6 | %29
 z2 z!p! (E,3 | D,3 _D,3) | =C,6 | =C,,6- | C,,2 z (=C,3 | B,,6) | (B,,3 =C,3) || (B,,3 =C,3) | %37
 (B,,3 =C,3 | B,,3) z2 z | z!f! A,,E,A,=CA,, | z EE, z E,E,, | z A,,=C,E,A,A,, | z E,E,, z B,,E,, | %43
 ^^F,,!<(!E, z G,,E,!<)! z | ^A,,E, z B,,G, z |!p! C,E,B,, A,,C,A,, | G,,B,,G,, ^^F,,B,,F,, | %47
 F,,zF, D,F,D, |!<(! C,F,=C,F,!<)!!f! B,,B, | z2 z!f! (E,,3 | G,,3 C,3 | E,3) (A,,3 | C,3 F,3) | %53
!p! (F,,3!<(! (G,,3) | (A,,3)!<)! ^A,,3) | B,,3 (C,3 | ^^C,3) ^D,3 |[K:tenor]!pp! (E3 ^D3) | %58
 (E3 ^D3) | (D3 C3 | =C3 _B,3) |[K:bass] (A,3 =G,3) | (A,3 =G,3) | (=F,3 E,3) | (E,3 ^D,3) | %65
 z!p! (E,,B,, A,, =C,2) | z (E,,B,, E,, E,2) | z (F,,G,,) z (G,,A,,) | z (B,,C, ^D,C,B,,) | %69
 (E,,3 B,,3 | C,6) | (F,,3 C,2 ^^C,) | ^D,3- (D,C,B,,) |!f! !>!A,,6 | (A,,G,,F,, B,,2 A,,) | %75
 E,,6- | E,,3!p! (E,3 | A,,6-) | A,,2 z z2 z | E,6- | (E,^D,C, F,2 E,) |!pp! E,6- | E,2 z z2 z | %83
!pp! A,2 G,2 (.F,.G,) | A,2 G,2 (.F,.G,) | A,2!p! F,2 B,,2 | [E,,B,,]3- [E,,B,,] z/ :| z/ z | z6 | %89
 z2 z z z/!pp! .A,/.E,/.C,/ | D,>(A,,A,, A,,/)A,,/=F,,A,, | D,>A,,A,,- A,,/A,,/=F,,A,, | %92
 D,>A,A,- A,/D,/ D,>=C, | =C>=F,F,- F,/E,/ E>A, |!f! D,/!>!A,/ D,2 !>!D,,/A,,/ !>!D,,2 | %95
 B,,/F,/ B,,>B,, !>!A,,!>!C,!>!D, | !>!F,,/C,/ F,,2 E,,/C,/ !>!E,,2 | %97
 !>!D,,/B,,/ !>!D,,>D,, !>!C,,!>!^E,,!>!F,, | F,,/C,/ F,,>=F,, .E,,G,,A,, | %99
 A,,/E,/ A,,>=F,, E,,G,,A,, | =C,,=G,,=C, C,=G,=C | z2 z!mp! (.E.D.=C) | z2 z (.=G,.=F,.E,) | %103
 z2 z!pp! (.=G,.=F,._E,) | z2 z (._E,.D,.=C,) |!pp! (=C,/B,,/C,) z z2 z | %106
 .=C,._B,,._A,, .=C._B,._A, | z z/!p! (G,/E,/C,/ G,,>)^A,,A,, | %108
 ^A,,>(B,,B,, B,,/).B,,/(.B,,/C,/)(C,/^D,/) | (E,/^D,/E,) z z2 z | .G,.F,.E, .B,.A,.G, | %111
 (A,/G,/A,) z (B,/^A,/B,) z | (C/B,/C) z (D/C/D) z | (^D/C/D/B,/) (D/C/D/B,/ D/)C/D/B,/ | %114
 _E/_D/=C/_B,/ _A,/=G,/=F,/_E,/ _D,/=C,/_B,,/_A,,/ |!f! !>!_D,2 !>!_A,,2 !>!=F,,A,, | %116
 !>!_D,2 !>!_A,,2 !>!=F,,!>!A,, | (_D,3 _D,,3) | (=C,,3 =C,3) | (_D,3 _D,,3) | (=C,,3 =C,3) | %121
 (C,C,,) z z2 z | (D,,/E,,/)=F,,- F,,/=G,,/A,,- A,,/_B,,/=C,/D,/ | C,C,, z z2 z | %124
 (D,D,,) ((DD,)) (D,D,,) | C,C,, CC, (C,C,,) | z2 z (F,F,,) z | z2 z (_E,_E,,) z | %128
!p! (B,2 ^A,2 B,B,, | (B,2) ^A,2 B,B,,) | z6 | z6 | (A,2 G,2 A,A,,) | (^A,2 ^^G,2 A,^A,,) | %134
 B,,2 z z2 z | z6 |!<(! (=C2 B,2 C=C,)!<)! | (C2 ^B,2 CC,) |!f! D,6- | D,6 |!p! E,6 | A,,6 | %142
 B,,4- B,,(B,, | ^B,,4-) B,,B,, | (C,3 D,3) | ^D,4- D,D, | E,3 F,3 | (=G,3 =G,,3) | (F,3 F,,3) | %149
!f! _B,, =F,,/!>!E,,/F,,- F,, _G,,/!>!F,,/G,,- | G,, =G,,/F,,/G,, z _A,,/G,,/(A,, | %151
 _A,,) =A,,/G,,/ A,,2 _B,,/A,,/B,,- | B,, =B,,/^A,,/B,, B,,/A,,/B,, B,,/A,,/ | %153
 B,, B,,/^A,,/B,, B,,/A,,/ B,,B, |!ff! E2 ^D2 (EE,) | E,2 ^D,2 (E,E,,) | D,,/C,,/ D,,2 D,/C,/ D,2 | %157
 E,2 ^D,2 (E,E,,) |!f! D,,>D,,D,, D,,>D,,D,, | D,,>D,,D,, D,,>D,,D,, | D,,>D,,D,, D,,>D,,D,, | %161
 D,,>D,,D,, D,, z !fermata!z | z2 z z2!sfz! [C,,A,,E,] | (D2 A,2 F,A,) | (D2 A,2 F,A,) | %165
 (D!<(!A,=F,) (D,A,,!<)!=F,,/D,,/) | (C,,3 C,2) z |!p! (B,3 ^B,3 | C3 ^D3) | %169
[K:tenor] (F>E^D-) (D/F/)(F/(E/E/)D/) | F-(F/E/E/A,/)[K:bass] C-(C/B,/B,/B,,/ | %171
!f! A,,G,,!>!F,,) !>!=F,,2 D,,- | D,, !>!=F,,A,, (B,,D,)D,, ||[M:9/8] =F,,2 A,,2 D,(=F, (A,F,))D, | %174
[M:6/8]!ff! E, z E z E, z | E, z E,, z !fermata!z2 |!pp! .A,,/.E,/ A,,2 .A,,/.E,/ A,,>E,, | %177
 .=C,,.E,,A,,- A,,/.E,,/ .C,,.E,, | .A,,/.=G,,/.=C,/.=G,/ C, .C,/.G,/ C,>A,, | %179
 .=G,,.B,,=C,- C,/.A,,/ .G,,.B,, | =C, z .A,,/.A,,/ D, z .D,,/.D,,/ | A,, z A,, D, z D,, | %182
 A,, z A,,/A,,/ =G,,/G,,/ =F,,/F,,/ D,,/D,,/ |!f! D,2 A,,2 (=F,,A,, | D,2) A,,2 (F,,A,,) | %185
 (D,F,!<(!A, DEF)!<)! |!ff! (D(D,) D,D,,) z2 | (C(C,) C,C,,) z2 | (_B,_B,,) z B, z z | z6 | z6 | %191
 z2 z!p! (_E,3 | D,3 _D,3) | =C,6 | =C,,3 =F,,3- | F,,3 =F,3 | E,6 | (E,3 =F,3 |!pp! E,3 =F,3) | %199
 (E,3 =F,3 | E,3) z2 z | z!f! D,A,D=FD, | z AA, z A,A,, | z D,,=F,,A,,D,D,, | z A,A,, z E,A,, | %205
 ^B,,A, z C,A, z | ^D,A, z E,C z |!p! F,A,E, D,F,D, | C,E,C, ^B,,E,B,, | B,,3/2B,3/2 =G,B,G, | %210
 F,B,=F,B,!f! E,E,, | z2 z!f! (A,,3 | C,3 F,3 | A,3) (D,3 | F,3 B,3) |!p! (B,,3 C,3 | D,3 ^D,3) | %217
 (E,3 F,3 | ^^F,3 G,3) |[K:tenor]!pp! (A3 G3) | (A3 G3) | (=G3 (F3) | =F3 _E3) |[K:bass] (D3 =C3) | %224
 (D3 =C3) | (_B,3 A,3) | (A,3 G,3) | z (A,,E, D, =F,2) | z (A,,E, A,, A,2) | z (B,,C,) z (C,D,) | %230
 z (E,F,G,F,E,) | (A,,3 E,3 | F,6) | (B,,3 F,2 ^^F,) | G,3-!<(! (G,F,E,)!<)! |!f! D,6 | %236
 (D,C,B,, E,2 D, | A,,6-) | A,,3 A,3 | D,6- | D,2 z z2 z | A,6- | (A,G,F, B,2 A,-) | %243
 (A,2 F,- F,E,A,,) |!p! (.D,2 .A,,2 .=F,,.A,,) | (.D,2 .A,,2 .=F,,.A,,) | %246
 D,/A,,/D,,- D,,/=C,/ =F,,- F,,/_E,/_A,,- | A,,/_E,/!<(!=C,- C,/=G,/ =E,- E,/B,,/!<)! E,,/!f!D,,/ | %248
 (C,,3 D,,3) | (D,,3 ^D,,3) | (E,,2 ^E,,2 F,,2) |!f! E,, z z!sfz! E, z z | %252
!sfz! E, z z!sfz! E,, z z | !fermata!z6 | z6 |!pp! (E2 ^D2 EE,) | z6 | (E,2 ^D,2 E,2) | %258
 (A,,2 G,,2 A,,2) | =F,,6 |!<(! C,,6!<)! |!f! D,,3!>(! D,3 | A,,2!>)! z!pp! A,,2 z | %263
 !fermata!A,,6 |] %264

